packages/core/src/svgs/mbx.svg

<svg width="24" height="24" viewBox="0 0 24 24" fill="none" xmlns="http://www.w3.org/2000/svg">
<g clip-path="url(#clip0_31_13574)">
<path d="M0 0H24V24H0V0Z" fill="#F0F3FA"/>
<path d="M5.14282 17.5714V7.28564H7.88139L11.9357 11.2371L15.9943 7.28564H18.8571V17.5714H18.6L16.8128 15.8142L13.7357 12.9642L13.8343 12.8785L16.7143 15.5442V9.22707L11.9357 13.5771L7.28568 9.22707V15.5442L10.1657 12.8785L10.2643 12.9642L5.29282 17.5714H5.18139L5.16425 17.5542L5.14282 17.5714ZM11.5157 14.0871L11.6143 14.1728L7.94568 17.5714H7.75711L11.5157 14.0871ZM11.1728 13.7785L11.2714 13.8642L7.27282 17.5714H7.07997L11.1728 13.7785ZM10.8471 13.4871L10.9457 13.5728L6.62997 17.5714H6.43711L10.8514 13.4871H10.8471ZM10.53 13.2042L10.6285 13.2899L6.00854 17.5714H5.81568L10.53 13.2042ZM12.4843 14.0871L12.3857 14.1728L16.0543 17.5714H16.2428L12.4843 14.0871ZM12.8271 13.7785L12.7285 13.8642L16.7271 17.5714H16.92L12.8271 13.7785ZM13.1528 13.4871L13.0543 13.5728L17.37 17.5714H17.5628L13.1485 13.4871H13.1528ZM13.47 13.2042L13.3714 13.2899L17.9914 17.5714H18.1843L13.47 13.2042Z" fill="url(#paint0_linear_31_13574)"/>
</g>
<defs>
<linearGradient id="paint0_linear_31_13574" x1="5.14282" y1="8.05707" x2="12.9257" y2="15.6642" gradientUnits="userSpaceOnUse">
<stop stop-color="#4BABFF"/>
<stop offset="0.89" stop-color="#9600FF"/>
</linearGradient>
<clipPath id="clip0_31_13574">
<rect width="24" height="24" fill="white"/>
</clipPath>
</defs>
</svg>

<svg xmlns="http://www.w3.org/2000/svg" width="24" height="24" fill="none" viewBox="0 0 24 24"><g clip-path="url(#a)"><path fill="#F0F3FA" d="M0 0h24v24H0z"/><path fill="url(#b)" d="M5.143 17.571V7.286H7.88l4.055 3.951 4.058-3.951h2.863V17.57H18.6l-1.787-1.757-3.077-2.85.098-.085 2.88 2.665V9.227l-4.778 4.35-4.65-4.35v6.317l2.88-2.665.098.085-4.971 4.607H5.18l-.017-.017zm6.373-3.484.098.086-3.668 3.398h-.189zm-.343-.309.098.086-3.998 3.707H7.08zm-.326-.29.099.085L6.63 17.57h-.193l4.414-4.084zm-.317-.284.099.086-4.62 4.281h-.193zm1.954.883-.098.086 3.668 3.398h.189zm.343-.309-.098.086 3.998 3.707h.193zm.326-.29-.099.085 4.316 3.998h.193l-4.414-4.084zm.317-.284-.099.086 4.62 4.281h.193z"/></g><defs><linearGradient id="b" x1="5.143" x2="12.926" y1="8.057" y2="15.664" gradientUnits="userSpaceOnUse"><stop stop-color="#4BABFF"/><stop offset=".89" stop-color="#9600FF"/></linearGradient><clipPath id="a"><path fill="#fff" d="M0 0h24v24H0z"/></clipPath></defs></svg>
